Numix-GalliumOS/22/categories/applications-ruby.svg

<?xml version="1.0" encoding="UTF-8" standalone="no"?>
<svg
   xmlns:dc="http://purl.org/dc/elements/1.1/"
   xmlns:cc="http://creativecommons.org/ns#"
   xmlns:rdf="http://www.w3.org/1999/02/22-rdf-syntax-ns#"
   xmlns:svg="http://www.w3.org/2000/svg"
   xmlns="http://www.w3.org/2000/svg"
   xmlns:sodipodi="http://sodipodi.sourceforge.net/DTD/sodipodi-0.dtd"
   xmlns:inkscape="http://www.inkscape.org/namespaces/inkscape"
   width="22"
   height="22"
   viewBox="0 0 22 22"
   id="svg2"
   version="1.1"
   inkscape:version="0.91 r"
   sodipodi:docname="applications-ruby.svg">
  <metadata
     id="metadata36">
    <rdf:RDF>
      <cc:Work
         rdf:about="">
        <dc:format>image/svg+xml</dc:format>
        <dc:type
           rdf:resource="http://purl.org/dc/dcmitype/StillImage" />
        <dc:title />
      </cc:Work>
    </rdf:RDF>
  </metadata>
  <defs
     id="defs34" />
  <sodipodi:namedview
     pagecolor="#ffffff"
     bordercolor="#666666"
     borderopacity="1"
     objecttolerance="10"
     gridtolerance="10"
     guidetolerance="10"
     inkscape:pageopacity="0"
     inkscape:pageshadow="2"
     inkscape:window-width="1920"
     inkscape:window-height="1056"
     id="namedview32"
     showgrid="true"
     inkscape:zoom="16"
     inkscape:cx="13.282791"
     inkscape:cy="16.653751"
     inkscape:window-x="0"
     inkscape:window-y="24"
     inkscape:window-maximized="1"
     inkscape:current-layer="svg2">
    <inkscape:grid
       type="xygrid"
       id="grid4164" />
  </sodipodi:namedview>
  <path
     inkscape:connector-curvature="0"
     id="path6"
     d="M 9.0336793,4.677788 10.816522,9.2020898 12.819497,4.0562921"
     style="fill:none;stroke:#de4646;stroke-width:0.34375003;stroke-linecap:round;stroke-linejoin:round;stroke-miterlimit:4;stroke-dasharray:none"
     sodipodi:nodetypes="ccc" />
  <path
     inkscape:connector-curvature="0"
     id="path8"
     d="M 9.0336793,4.6778221 5.5736015,9.5065815 6.2428472,5.1964305"
     style="fill:none;stroke:#de4646;stroke-width:0.34375003;stroke-linecap:round;stroke-linejoin:round;stroke-miterlimit:4;stroke-dasharray:none"
     sodipodi:nodetypes="ccc" />
  <path
     style="fill:none;stroke:#de4646;stroke-width:0.34375003;stroke-linecap:round;stroke-linejoin:round;stroke-miterlimit:4;stroke-dasharray:none"
     d="m 12.819497,4.0604973 3.968116,3.987544 -0.828691,-4.092517"
     id="path12"
     inkscape:connector-curvature="0"
     sodipodi:nodetypes="ccc" />
  <path
     style="fill:none;stroke:#de4646;stroke-width:0.34375003;stroke-linecap:round;stroke-linejoin:round;stroke-miterlimit:4;stroke-dasharray:none"
     d="M 2.5780974,9.5524639 12.180758,18.046764 7.9927703,9.4871163 Z"
     id="path14"
     inkscape:connector-curvature="0"
     sodipodi:nodetypes="cccc" />
  <path
     style="fill:none;stroke:#de4646;stroke-width:0.34375003;stroke-linecap:round;stroke-linejoin:round;stroke-miterlimit:4;stroke-dasharray:none"
     d="M 2.5784237,9.5524639 6.2286269,5.1964305 9.0336793,4.6778221 7.9927703,9.4871163 Z"
     id="path16"
     inkscape:connector-curvature="0"
     sodipodi:nodetypes="ccccc" />
  <path
     style="fill:none;stroke:#de4646;stroke-width:0.34375003;stroke-linecap:round;stroke-linejoin:round;stroke-miterlimit:4;stroke-dasharray:none"
     d="m 12.819497,4.0563262 3.139425,-0.1006477 3.462969,3.3429939 -5.528783,1.5725099"
     id="path18"
     inkscape:connector-curvature="0"
     sodipodi:nodetypes="cccc" />
  <path
     style="fill:none;stroke:#de4646;stroke-width:0.34375003;stroke-linecap:round;stroke-linejoin:round;stroke-miterlimit:4;stroke-dasharray:none"
     d="m 9.0335483,4.6778221 3.7859487,-0.6214959 1.073611,4.8148561 -5.9003377,0.61611"
     id="path20"
     inkscape:connector-curvature="0"
     sodipodi:nodetypes="cccc" />
  <path
     style="fill:none;stroke:#de4646;stroke-width:0.34375003;stroke-linecap:round;stroke-linejoin:round;stroke-miterlimit:4;stroke-dasharray:none"
     d="M 12.180758,18.046936 19.421891,7.2986724 13.893108,8.8708578 Z"
     id="path22"
     inkscape:connector-curvature="0"
     sodipodi:nodetypes="cccc" />
  <path
     style="fill:none;stroke:#de4646;stroke-width:0.17187501;stroke-linecap:round;stroke-linejoin:round;stroke-miterlimit:4;stroke-dasharray:none"
     d="M 16.787613,8.0480825 12.180758,18.046936"
     id="path26"
     inkscape:connector-curvature="0"
     sodipodi:nodetypes="cc" />
  <path
     style="fill:none;stroke:#de4646;stroke-width:0.17187501;stroke-linecap:round;stroke-linejoin:round;stroke-miterlimit:4;stroke-dasharray:none"
     d="m 10.816304,9.2020898 1.364454,8.8448462"
     id="path28"
     inkscape:connector-curvature="0"
     sodipodi:nodetypes="cc" />
  <path
     style="fill:none;stroke:#de4646;stroke-width:0.17187501;stroke-linecap:round;stroke-linejoin:round;stroke-miterlimit:4;stroke-dasharray:none"
     d="M 5.5734928,9.5065815 12.180758,18.046936"
     id="path30"
     inkscape:connector-curvature="0"
     sodipodi:nodetypes="cc" />
</svg>

<svg xmlns="http://www.w3.org/2000/svg" viewBox="0 0 22 22">
 <path d="m 9.03 4.678 1.783 4.524 2 -5.146" style="stroke-dasharray:none;fill:none;stroke-miterlimit:4;stroke:#de4646;stroke-linecap:round;stroke-linejoin:round;stroke-width:0.344"/>
 <path d="m 9.03 4.678 -3.46 4.829 0.669 -4.31" style="stroke-dasharray:none;fill:none;stroke-miterlimit:4;stroke:#de4646;stroke-linecap:round;stroke-linejoin:round;stroke-width:0.344"/>
 <path d="m 12.819 4.06 3.968 3.988 -0.829 -4.093" style="stroke-dasharray:none;fill:none;stroke-miterlimit:4;stroke:#de4646;stroke-linecap:round;stroke-linejoin:round;stroke-width:0.344"/>
 <path d="m 2.578 9.552 9.603 8.494 -4.188 -8.56" style="stroke-dasharray:none;fill:none;stroke-miterlimit:4;stroke:#de4646;stroke-linecap:round;stroke-linejoin:round;stroke-width:0.344"/>
 <path d="m 2.578 9.552 3.65 -4.356 2.805 -0.519 -1.041 4.809" style="stroke-dasharray:none;fill:none;stroke-miterlimit:4;stroke:#de4646;stroke-linecap:round;stroke-linejoin:round;stroke-width:0.344"/>
 <path d="m 12.819 4.056 3.139 -0.101 3.463 3.343 -5.529 1.573" style="stroke-dasharray:none;fill:none;stroke-miterlimit:4;stroke:#de4646;stroke-linecap:round;stroke-linejoin:round;stroke-width:0.344"/>
 <path d="m 9.03 4.678 3.786 -0.621 1.074 4.815 -5.9 0.616" style="stroke-dasharray:none;fill:none;stroke-miterlimit:4;stroke:#de4646;stroke-linecap:round;stroke-linejoin:round;stroke-width:0.344"/>
 <path d="m 12.181 18.05 7.241 -10.748 -5.529 1.572" style="stroke-dasharray:none;fill:none;stroke-miterlimit:4;stroke:#de4646;stroke-linecap:round;stroke-linejoin:round;stroke-width:0.344"/>
 <path d="m 16.788 8.05 -4.607 9.999" style="stroke-dasharray:none;fill:none;stroke-miterlimit:4;stroke:#de4646;stroke-linecap:round;stroke-linejoin:round;stroke-width:0.172"/>
 <path d="m 10.816 9.202 1.364 8.845" style="stroke-dasharray:none;fill:none;stroke-miterlimit:4;stroke:#de4646;stroke-linecap:round;stroke-linejoin:round;stroke-width:0.172"/>
 <path d="m 5.573 9.507 6.607 8.54" style="stroke-dasharray:none;fill:none;stroke-miterlimit:4;stroke:#de4646;stroke-linecap:round;stroke-linejoin:round;stroke-width:0.172"/>
</svg>
